src/cmd/ar/sc_linenumberdialog.svg

<svg viewBox="0 0 16 16" xmlns="http://www.w3.org/2000/svg"><path d="m13 2v1h-1v2h1v1h-3v-1h1v-2h-1v-1zm-5 0v1h-6v-1zm0 2v1h-4v-1zm6 4v1h-1v2h1v1h-3v-1h1v-2h-1v2h-1v-2h-1v-1zm-6 0v1h-6v-1zm0 2v1h-2v-1zm-3 0v1h-1.875-.125-1v-1h1 .125z" fill="#232629"/><path d="m9 12c.55228 0 1 .44772 1 1s-.44772 1-1 1-1-.44772-1-1 .44772-1 1-1zm-3 0c.55228 0 1 .44772 1 1s-.44772 1-1 1-1-.44772-1-1 .44772-1 1-1zm-3 0c.55228 0 1 .44772 1 1s-.44772 1-1 1-1-.44772-1-1 .44772-1 1-1z" fill="#e95420"/></svg>

<?xml version="1.0" encoding="UTF-8" standalone="no"?>
<svg
   xmlns:dc="http://purl.org/dc/elements/1.1/"
   xmlns:cc="http://creativecommons.org/ns#"
   xmlns:rdf="http://www.w3.org/1999/02/22-rdf-syntax-ns#"
   xmlns:svg="http://www.w3.org/2000/svg"
   xmlns="http://www.w3.org/2000/svg"
   xmlns:sodipodi="http://sodipodi.sourceforge.net/DTD/sodipodi-0.dtd"
   xmlns:inkscape="http://www.inkscape.org/namespaces/inkscape"
   viewBox="0 0 16 16"
   version="1.1"
   id="svg6"
   sodipodi:docname="sc_linenumberdialog.svg"
   inkscape:version="0.92.4 (5da689c313, 2019-01-14)">
  <metadata
     id="metadata12">
    <rdf:RDF>
      <cc:Work
         rdf:about="">
        <dc:format>image/svg+xml</dc:format>
        <dc:type
           rdf:resource="http://purl.org/dc/dcmitype/StillImage" />
      </cc:Work>
    </rdf:RDF>
  </metadata>
  <defs
     id="defs10" />
  <sodipodi:namedview
     pagecolor="#ffffff"
     bordercolor="#666666"
     borderopacity="1"
     objecttolerance="10"
     gridtolerance="10"
     guidetolerance="10"
     inkscape:pageopacity="0"
     inkscape:pageshadow="2"
     inkscape:window-width="1920"
     inkscape:window-height="1011"
     id="namedview8"
     showgrid="true"
     inkscape:zoom="29.5"
     inkscape:cx="0.4679898"
     inkscape:cy="7.2154205"
     inkscape:window-x="0"
     inkscape:window-y="32"
     inkscape:window-maximized="1"
     inkscape:current-layer="svg6">
    <inkscape:grid
       type="xygrid"
       id="grid822" />
  </sodipodi:namedview>
  <path
     d="m 13,2 v 1 h -1 v 2 h 1 V 6 H 10 V 5 h 1 V 3 H 10 V 2 Z M 8,2 V 3 H 2 V 2 Z M 8,4 V 5 H 2 V 4 Z m 6,4 v 1 h -1 v 2 h 1 v 1 h -3 v -1 h 1 V 9 h -1 v 2 H 10 V 9 H 9 V 8 Z M 8,8 V 9 H 2 V 8 Z m 0,2 v 1 H 2 v -1 z"
     id="path2"
     inkscape:connector-curvature="0"
     style="fill:#232629"
     sodipodi:nodetypes="cccccccccccccccccccccccccccccccccccccccccccccccccc" />
  <path
     d="m9 12c.55228 0 1 .44772 1 1s-.44772 1-1 1-1-.44772-1-1 .44772-1 1-1zm-3 0c.55228 0 1 .44772 1 1s-.44772 1-1 1-1-.44772-1-1 .44772-1 1-1zm-3 0c.55228 0 1 .44772 1 1s-.44772 1-1 1-1-.44772-1-1 .44772-1 1-1z"
     fill="#e95420"
     id="path4" />
</svg>
